apps/vault/public/meta/icon.svg

<svg width="24" height="24" viewBox="0 0 24 24" fill="none" xmlns="http://www.w3.org/2000/svg">
<rect width="24" height="24" fill="url(#paint0_linear)"/>
<path d="M17.6 19.4933C17.6 19.76 17.3867 20 17.0933 20H16.5067C16.24 20 16 19.7867 16 19.4933V18.64C16 18.3733 16.2133 18.1333 16.5067 18.1333H17.0933C17.36 18.1333 17.6 18.3467 17.6 18.64V19.4933Z" fill="#E4D0EC"/>
<path d="M7.73351 19.4933C7.73351 19.76 7.52018 20 7.22685 20H6.64018C6.37351 20 6.13351 19.7867 6.13351 19.4933V18.64C6.13351 18.3733 6.34685 18.1333 6.64018 18.1333H7.22685C7.49351 18.1333 7.73351 18.3467 7.73351 18.64V19.4933Z" fill="#E4D0EC"/>
<path d="M19.4667 17.44C19.4667 18.2667 18.8267 18.9333 18.0001 18.9333H6.00008C5.17342 18.9333 4.53342 18.2667 4.53342 17.44V5.44C4.53342 4.61333 5.17342 4 6.00008 4H18.0001C18.8267 4 19.4667 4.61333 19.4667 5.41333V17.44Z" fill="white"/>
<path d="M17.8668 16.0533C17.8668 16.6933 17.2535 17.3333 16.6402 17.3333H7.36018C6.72018 17.3333 6.13351 16.6933 6.13351 16.0533V6.8C6.13351 6.16 6.74685 5.6 7.36018 5.6H16.6402C17.2802 5.6 17.8668 6.16 17.8668 6.8V16.0533Z" fill="#E4618B" fill-opacity="0.15"/>
<path d="M6.93342 9.65333C6.93342 9.92 6.72009 10.1333 6.45342 10.1333H6.32009C6.05342 10.1333 5.84009 9.92 5.84009 9.65333V8.18667C5.84009 7.92 6.05342 7.70667 6.32009 7.70667H6.45342C6.72009 7.70667 6.93342 7.92 6.93342 8.18667V9.65333Z" fill="#F9C1E2"/>
<path d="M6.93342 14.9867C6.93342 15.2533 6.72009 15.4667 6.45342 15.4667H6.32009C6.05342 15.4667 5.84009 15.2533 5.84009 14.9867V13.52C5.84009 13.2533 6.05342 13.04 6.32009 13.04H6.45342C6.72009 13.04 6.93342 13.2533 6.93342 13.52V14.9867Z" fill="#F9C1E2"/>
<path d="M14.8571 11.3333C14.8571 12.3038 14.8753 13.4006 15.5616 14.0869L15.8326 14.3579C16.0558 14.5811 16.0558 14.9427 15.8326 15.1659C15.6094 15.3891 15.2478 15.3891 15.0245 15.1659L14.7536 14.8949C14.0673 14.2087 12.9705 14.1905 12 14.1905C11.0295 14.1905 9.93267 14.2087 9.24643 14.8949L8.97544 15.1659C8.75221 15.3891 8.39065 15.3891 8.16739 15.1659C7.9442 14.9427 7.9442 14.5811 8.16739 14.3579L8.43839 14.0869C9.12462 13.4006 9.14284 12.3038 9.14284 11.3333C9.14284 10.3628 9.12462 9.26599 8.43839 8.57976L8.16739 8.30877C7.9442 8.08558 7.9442 7.72395 8.16739 7.50072C8.39058 7.27754 8.75221 7.27754 8.97544 7.50072L9.24643 7.77171C9.93267 8.45795 11.0295 8.47616 12 8.47616C12.9705 8.47616 14.0673 8.45795 14.7536 7.77171L15.0246 7.50072C15.2478 7.27754 15.6094 7.27754 15.8326 7.50072C16.0558 7.72391 16.0558 8.08554 15.8326 8.30877L15.5616 8.57977C14.8754 9.266 14.8571 10.3628 14.8571 11.3333ZM12 9.61904C11.0547 9.61904 10.2857 10.388 10.2857 11.3333C10.2857 12.2786 11.0547 13.0476 12 13.0476C12.9453 13.0476 13.7143 12.2786 13.7143 11.3333C13.7143 10.388 12.9453 9.61904 12 9.61904ZM12 11.9048C11.6844 11.9048 11.4286 11.6489 11.4286 11.3333C11.4286 11.0178 11.6844 10.7619 12 10.7619C12.3156 10.7619 12.5714 11.0177 12.5714 11.3333C12.5714 11.6489 12.3156 11.9048 12 11.9048Z" fill="url(#paint1_linear)"/>
<defs>
<linearGradient id="paint0_linear" x1="0" y1="0" x2="33.6667" y2="37.8333" gradientUnits="userSpaceOnUse">
<stop stop-color="#F5A623"/>
<stop offset="1" stop-color="#D012FF"/>
</linearGradient>
<linearGradient id="paint1_linear" x1="8" y1="7.33333" x2="19.2222" y2="19.9444" gradientUnits="userSpaceOnUse">
<stop stop-color="#F5A623"/>
<stop offset="1" stop-color="#D012FF"/>
</linearGradient>
</defs>
</svg>

<svg width="24" height="24" fill="none" xmlns="http://www.w3.org/2000/svg"><path fill="url(#paint0_linear)" d="M0 0h24v24H0z"/><path d="M17.6 19.493a.506.506 0 0 1-.507.507h-.586a.506.506 0 0 1-.507-.507v-.853c0-.267.213-.507.507-.507h.586c.267 0 .507.214.507.507v.853zM7.734 19.493a.506.506 0 0 1-.507.507H6.64a.506.506 0 0 1-.506-.507v-.853c0-.267.213-.507.506-.507h.587c.267 0 .507.214.507.507v.853z" fill="#E4D0EC"/><path d="M19.467 17.44c0 .827-.64 1.493-1.467 1.493H6c-.827 0-1.467-.666-1.467-1.493v-12C4.533 4.613 5.173 4 6 4h12c.827 0 1.467.613 1.467 1.413V17.44z" fill="#fff"/><path d="M17.867 16.053c0 .64-.614 1.28-1.227 1.28H7.36c-.64 0-1.226-.64-1.226-1.28V6.8c0-.64.613-1.2 1.226-1.2h9.28c.64 0 1.227.56 1.227 1.2v9.253z" fill="#E4618B" fill-opacity=".15"/><path d="M6.933 9.653c0 .267-.213.48-.48.48H6.32a.478.478 0 0 1-.48-.48V8.187c0-.267.213-.48.48-.48h.133c.267 0 .48.213.48.48v1.466zM6.933 14.987c0 .266-.213.48-.48.48H6.32a.478.478 0 0 1-.48-.48V13.52c0-.267.213-.48.48-.48h.133c.267 0 .48.213.48.48v1.467z" fill="#F9C1E2"/><path d="M14.857 11.333c0 .97.018 2.068.705 2.754l.27.27a.571.571 0 1 1-.808.809l-.27-.271c-.687-.686-1.784-.704-2.754-.704s-2.067.018-2.754.704l-.27.27a.571.571 0 1 1-.809-.807l.271-.271c.687-.686.705-1.783.705-2.754 0-.97-.018-2.067-.705-2.753l-.27-.271a.571.571 0 1 1 .807-.808l.271.27c.687.687 1.784.705 2.754.705s2.067-.018 2.754-.704l.27-.271a.571.571 0 1 1 .809.808l-.271.27c-.687.687-.705 1.784-.705 2.754zM12 9.62c-.945 0-1.714.769-1.714 1.714 0 .946.769 1.715 1.714 1.715s1.714-.77 1.714-1.715c0-.945-.769-1.714-1.714-1.714zm0 2.286a.571.571 0 1 1 0-1.143.571.571 0 0 1 0 1.143z" fill="url(#paint1_linear)"/><defs><linearGradient id="paint0_linear" x1="0" y1="0" x2="33.667" y2="37.833" gradientUnits="userSpaceOnUse"><stop stop-color="#F5A623"/><stop offset="1" stop-color="#D012FF"/></linearGradient><linearGradient id="paint1_linear" x1="8" y1="7.333" x2="19.222" y2="19.944" gradientUnits="userSpaceOnUse"><stop stop-color="#F5A623"/><stop offset="1" stop-color="#D012FF"/></linearGradient></defs></svg>
